client/public/assets/icons/standard/resource_skill.svg

<svg id="icons" xmlns="http://www.w3.org/2000/svg" width="100" height="100" viewBox="0 0 100 100"><title>resource_skill</title><path d="M43.85,45.44a6,6,0,1,0,12.07,0,6,6,0,1,0-12.07,0Z" fill="#fff" fill-rule="evenodd"/><path d="M49.91,20A25.4,25.4,0,1,0,75.09,45.5C75.09,31.71,63.85,20,49.91,20ZM66.49,53.69l-1.16,1.93a2.66,2.66,0,0,1-2.13,1.16,2.82,2.82,0,0,1-.87-.19l-3.19-1.26A14,14,0,0,1,54.49,58l-.58,3.58a2.48,2.48,0,0,1-2.42,2H49.08a2.48,2.48,0,0,1-2.42-2L46.08,58a12,12,0,0,1-4.45-2.51l-3.38,1.26a2.82,2.82,0,0,1-.87.19,2.52,2.52,0,0,1-2.13-1.26l-1.16-2a2.41,2.41,0,0,1,.58-3.09l2.8-2.32a12.69,12.69,0,0,1-.29-2.61,11.81,11.81,0,0,1,.29-2.51l-2.8-2.32a2.39,2.39,0,0,1-.58-3.09l1.16-2a2.4,2.4,0,0,1,2.13-1.26,2.82,2.82,0,0,1,.87.19l3.38,1.26a13.82,13.82,0,0,1,4.45-2.61l.58-3.38A2.31,2.31,0,0,1,49.08,28H51.5a2.32,2.32,0,0,1,2.42,1.84l.58,3.48a13.55,13.55,0,0,1,4.45,2.51l3.38-1.26a2.82,2.82,0,0,1,.87-.19,2.52,2.52,0,0,1,2.13,1.26l1.16,2a2.53,2.53,0,0,1-.58,3.09l-2.8,2.32a12,12,0,0,1,.29,2.61,11.81,11.81,0,0,1-.29,2.51l2.8,2.32A2.52,2.52,0,0,1,66.49,53.69Z" fill="#fff" fill-rule="evenodd"/><path d="M26,64.21H24.73A4.75,4.75,0,0,0,20,68.95v6.31A4.74,4.74,0,0,0,24.73,80H75.27A4.75,4.75,0,0,0,80,75.26V68.95a4.74,4.74,0,0,0-4.73-4.74H73.73a30.15,30.15,0,0,1-47.72,0Z" fill="#fff" fill-rule="evenodd"/></svg>

<?xml version="1.0"?><svg xmlns="http://www.w3.org/2000/svg" width="100" height="100" viewBox="0 0 100 100"><title></title><path d="m43.9 45.4a6 6 0 1 0 12 0 6 6 0 1 0-12 0z m6-25.4a25.4 25.4 0 1 0 25.2 25.5c0-13.8-11.2-25.5-25.2-25.5z m16.6 33.7l-1.2 1.9a2.7 2.7 0 0 1-2.1 1.2 2.8 2.8 0 0 1-0.9-0.2l-3.2-1.3a14 14 0 0 1-4.6 2.7l-0.6 3.6a2.5 2.5 0 0 1-2.4 2h-2.4a2.5 2.5 0 0 1-2.4-2l-0.6-3.6a12 12 0 0 1-4.5-2.5l-3.4 1.3a2.8 2.8 0 0 1-0.8 0.1 2.5 2.5 0 0 1-2.2-1.2l-1.1-2a2.4 2.4 0 0 1 0.6-3.1l2.8-2.3a12.7 12.7 0 0 1-0.3-2.6 11.8 11.8 0 0 1 0.3-2.5l-2.8-2.4a2.4 2.4 0 0 1-0.6-3.1l1.1-2a2.4 2.4 0 0 1 2.2-1.2 2.8 2.8 0 0 1 0.8 0.2l3.4 1.2a13.8 13.8 0 0 1 4.5-2.6l0.6-3.4a2.3 2.3 0 0 1 2.4-1.9h2.4a2.3 2.3 0 0 1 2.4 1.8l0.6 3.5a13.6 13.6 0 0 1 4.5 2.5l3.3-1.2a2.8 2.8 0 0 1 0.9-0.2 2.5 2.5 0 0 1 2.1 1.2l1.2 2a2.5 2.5 0 0 1-0.6 3.1l-2.8 2.4a12 12 0 0 1 0.3 2.6 11.8 11.8 0 0 1-0.3 2.5l2.8 2.3a2.5 2.5 0 0 1 0.6 3.2z m-40.5 10.5h-1.3a4.8 4.8 0 0 0-4.7 4.8v6.3a4.7 4.7 0 0 0 4.7 4.7h50.6a4.8 4.8 0 0 0 4.7-4.7v-6.3a4.7 4.7 0 0 0-4.7-4.8h-1.6a30.1 30.1 0 0 1-47.7 0z" fill="#fff" fill-rule="evenodd"></path></svg>
